X:1
T:T'amo mia vita
T:T'amo mia vita
T:Enrico Radesca di Foggia
T:Source : Canzonette a 2 voci---Libro III---Milano (?)---Heredes S.Tini & F.Lomazzi (?)---1616. Editor : André Vierendeels (28/03/14).
T:Notes : Original clefs : C1, F4 Continuo slightly adapted Title-page missing in original print
C:Enrico Radesca
%%score [ 1 2 ] 3
L:1/8
Q:1/4=86
M:4/4
K:F
V:1 treble nm="Soprano" snm="S"
V:2 bass nm="Bass" snm="B"
V:3 bass nm="MusicXML Part"
V:1
 d6 cB | A4 G4 | z2 c4 BA | c2 G2 ABcd | cGAB c4- | c2 BA G4 | F8 | z2 d4 cB | A2 A2 ^FFFG | %9
w: T'a- mo mia|vi- ta,|t'a- mo mia|vi- ta, la mia ca- ra|vi- ta dol- ce- men-|* te mi di-|ce,|t'a- mo mia|vi- ta, la mia ca- ra|
 AAAG A4- | A2 GF E4 | D4 z2 A2 | B2 c2 ddff | _e2 cc d2 B2 | d2 dd c2 A2 | BABG A2 AD | %16
w: vi- ta dol- ce- men-|* te mi di-|ce, e'n|que- sta so- la si so-|a- ve pa- ro- la,|par che trans- for- mi|lie- ta- men- t'il co- re, per|
 EF G>A A4 | G8 :: G8 | EEED E4 | ^F8 | z4 d4 | ddAA GGGA | ^F4 F4 | d2 cd _e2 c2 | d2 d2 d2 cB | %26
w: far me- ne si- gno-|re.|O|vo- ce di dol- cez-|za,|O|vo- ce di dol- cez- za'e di di-|let- to,|pren- di la to- sto'a-|mo- re, stam- pa- la|
 c2 A2 G2 G2 | B2 AB G2 A2 | B2 B2 G2 AB | c2 A2 G2 G2 | z4 B4- | B2 B2 B2 BA | G4 _e4- | %33
w: nel mio pet- to,|pren- di- ta to- sto'a-|mo- re, stam- pa- la|nel mio pet- to,|spi-|* ri so- lo per|mei l'a-|
 e2 dd c4 | B8 | d6 cB | A4 G4 | D2 E2 F2 G2 | A4 A4 | z4 f4- | f2 _ed c4 | B4 z4 | A2 B2 c4- | %43
w: * ni- ma mi-|a,|t'a- mo mia|vi- ta,|la mia vi- ta|fi- a,|t'a-|* mo mia vi-|ta,|la mia vi-|
 c4 B4 | A8 | G8 :| %46
w: * ta|fi-|a.|
V:2
 G,,4 B,,2 C,2 | D,4 G,,4 | F,4 _E,2 D,2 | C,2 C,2 F,F,F,F, | F,E,F,G, F,2 E,D, | C,8 | F,,8 | %7
w: T'a- mo mia|vi- ta,|t'a- mo mia|vi- ta, la mia ca- ra|vi- ta dol- ce- men- te mi|di-|ce,|
 G,,4 B,,2 C,2 | D,2 D,2 D,D,D,E, | F,F,F,E, D,2 C,B,, | A,,8 | D,4 z2 D,2 | G,2 F,2 B,B,B,B, | %13
w: t'a- mo mia|vi- ta, la mia ca- ra|vi- ta dol- ce- men- te mi|di-|ce, e'n|qu- sta so- la si so-|
 _E,2 F,F, B,,2 B,,2 | B,2 B,B, A,2 F,2 | G,F,G,_E, D,2 D,B,, | C,D,_E,C, D,4 | G,,8 :: G,,8 | %19
w: a- ve pa- ro- la,|par che trans- for- mi|lie- ta- men- t'il co- re, per|far me- ne si- gno-|re.|O|
 A,,A,,A,,B,, A,,4 | D,8 | G,8 | D,D,D,D, _E,E,E,C, | D,4 D,4 | B,2 A,B, _E,2 F,2 | %25
w: vo- ce di dol- cez-|za,|O|vo- ce di dol- cez- za'e di di-|let- to,|pren- di la to- sto'a-|
 B,2 B,2 G,2 _E,D, | C,2 D,2 G,,2 G,,2 | G,2 ^F,G, _E,2 F,2 | B,,2 B,,2 _E,2 E,D, | %29
w: mo- re, stam- pa- la|nel mio pet- to,|pren- di- ta to- sto'a-|mo- re, stam- pa- la|
 C,2 D,2 G,,2 G,,2 | G,6 G,2 | G,6 G,F, | _E,4 E,4 | B,,2 B,,2 F,4 | B,,8 | G,,4 B,,2 C,2 | %36
w: nel mio pet- to,|spi- ri|so- lo per|mei l'a-|ni- ma mi-|a,|t'a- mo mia|
 D,4 G,,4 | D,2 C,2 B,,2 B,,2 | A,,4 D,4 | B,,4 D,2 _E,2 | F,8 | B,,4 D,2 E,2 | F,4 _E,4 | D,8- | %44
w: vi- ta,|la mia vi- ta|fi- a,|t'a- mo mia|vi-|ta, la mia|vi- ta|fi-|
 D,8 | G,,8 :| %46
w: |a.|
V:3
 G,,4 B,,2 C,2 | D,4 G,,4 | F,4 _E,2 D,2 | C,4 F,4 | F,E, F,G, F,2 E,D, | C,8 | F,,8 | %7
 G,,4 B,,2 C,2 | D,4 D,3 E, | F,3 E, D,2 C,B,, | A,,8 | D,4 D,4 | G,2 F,2 B,4 | _E,2 F,2 B,,4 | %14
 B,4 A,2 F,2 | G,F, G,_E, D,3 B,, | C,D, _E,C, D,4 | G,,8 :: G,,8 | A,,3 B,, A,,4 | D,8 | G,8 | %22
 D,4 _E,3 C, | D,8 | B,2 A,B, _E,2 F,2 | B,4 G,2 _E,D, | C,2 D,2 G,,4 | G,2 ^F,G, _E,2 F,2 | %28
 B,,4 _E,3 D, | C,2 D,2 G,,4 | G,8 | G,4 G,3 F, | _E,8 | B,,4 F,4 | B,,8 | G,,4 B,,2 C,2 | %36
 D,4 G,,4 | D,2 C,2 B,,4 | A,,4 D,4 | B,,4 D,2 _E,2 | F,8 | B,,4 D,2 E,2 | F,4 _E,4 | D,8- | D,8 | %45
 G,,8 :| %46

